img/svg/eye-off.svg

<svg width="16" height="16" viewBox="0 0 16 16" fill="none" xmlns="http://www.w3.org/2000/svg">
<path d="M2.35258 1.64668C2.2578 1.55836 2.13243 1.51027 2.0029 1.51256C1.87336 1.51485 1.74977 1.56732 1.65817 1.65893C1.56656 1.75054 1.51408 1.87413 1.5118 2.00366C1.50951 2.1332 1.55759 2.25856 1.64591 2.35334L13.6459 14.3533C13.6917 14.4025 13.7469 14.4419 13.8082 14.4692C13.8696 14.4965 13.9358 14.5112 14.0029 14.5124C14.07 14.5136 14.1367 14.5012 14.199 14.4761C14.2612 14.4509 14.3178 14.4135 14.3653 14.366C14.4128 14.3186 14.4502 14.262 14.4753 14.1997C14.5005 14.1375 14.5128 14.0708 14.5116 14.0037C14.5105 13.9365 14.4958 13.8703 14.4684 13.809C14.4411 13.7477 14.4017 13.6925 14.3526 13.6467L2.35258 1.64668ZM15.1166 8.36868C14.7572 9.447 14.1574 10.4295 13.3626 11.242L11.2966 9.17601C11.5195 8.55196 11.5606 7.87745 11.4153 7.23093C11.2699 6.58441 10.944 5.99244 10.4754 5.52387C10.0068 5.05529 9.41485 4.72937 8.76833 4.584C8.1218 4.43863 7.4473 4.47978 6.82325 4.70268L5.17191 3.05134C6.06993 2.68598 7.03042 2.49873 7.99991 2.50001C11.3132 2.50001 14.1232 4.64868 15.1166 7.62668C15.1966 7.86801 15.1966 8.12801 15.1166 8.36868Z" fill="white"/>
<path d="M10.5005 8.00001C10.5005 8.12001 10.4918 8.238 10.4758 8.35334L7.64651 5.52467C8.00117 5.47394 8.36258 5.50003 8.70627 5.60117C9.04996 5.70231 9.3679 5.87613 9.63855 6.11087C9.90919 6.34561 10.1262 6.63577 10.2749 6.96171C10.4237 7.28765 10.5006 7.64174 10.5005 8.00001ZM8.35385 10.4753L5.52518 7.64601C5.47022 8.03032 5.50552 8.42216 5.62828 8.79046C5.75104 9.15877 5.95789 9.49343 6.23244 9.76791C6.50699 10.0424 6.8417 10.2492 7.21003 10.3718C7.57837 10.4945 7.97021 10.5297 8.35451 10.4747L8.35385 10.4753Z" fill="white"/>
<path d="M4.4996 7.99999C4.4996 7.58732 4.57093 7.19132 4.70227 6.82399L2.6356 4.75732C1.841 5.56989 1.24146 6.55241 0.882266 7.63066C0.802266 7.87199 0.802266 8.13199 0.882266 8.37332C1.87493 11.3513 4.68493 13.5 7.99893 13.5C8.99893 13.5 9.95427 13.304 10.8269 12.9487L9.1756 11.2973C8.64737 11.4858 8.08158 11.5445 7.52591 11.4686C6.97023 11.3927 6.44093 11.1844 5.98258 10.8612C5.52424 10.538 5.15028 10.1093 4.8922 9.61141C4.63411 9.11349 4.49947 8.56083 4.4996 7.99999Z" fill="white"/>
</svg>

<?xml version="1.0" encoding="utf-8"?><svg width="16" height="16" xmlns="http://www.w3.org/2000/svg" viewBox="0 0 16 16"><path d="M2.353 1.647a.5.5 0 0 0-.707.706l12 12a.5.5 0 1 0 .707-.706l-12-12Zm12.764 6.722a7.5 7.5 0 0 1-1.754 2.873l-2.066-2.066a3.5 3.5 0 0 0-4.474-4.473L5.172 3.05a7.504 7.504 0 0 1 9.945 4.575c.08.242.08.502 0 .743Z"/><path d="M10.5 8c0 .12-.008.238-.024.353l-2.83-2.828A2.5 2.5 0 0 1 10.502 8Zm-2.146 2.475L5.525 7.646a2.5 2.5 0 0 0 2.83 2.829h-.001Z"/><path d="M4.5 8c0-.413.07-.809.202-1.176L2.636 4.757A7.5 7.5 0 0 0 .882 7.631c-.08.241-.08.501 0 .742a7.503 7.503 0 0 0 9.945 4.576l-1.651-1.652A3.5 3.5 0 0 1 4.5 8Z"/></svg>
